svgs/sharp-light/tv.svg

<svg xmlns="http://www.w3.org/2000/svg" viewBox="0 0 640 512"><!--! Font Awesome Pro 6.6.0 by @fontawesome - https://fontawesome.com License - https://fontawesome.com/license (Commercial License) Copyright 2024 Fonticons, Inc. --><path d="M32 32l0 384 576 0 0-384L32 32zM0 0L32 0 608 0l32 0 0 32 0 384 0 32-32 0L32 448 0 448l0-32L0 32 0 0zM112 480l416 0 16 0 0 32-16 0-416 0-16 0 0-32 16 0z"/></svg>

<svg xmlns="http://www.w3.org/2000/svg" viewBox="0 0 640 512"><!--! Font Awesome Pro 6.5.2 by @fontawesome - https://fontawesome.com License - https://fontawesome.com/license (Commercial License) Copyright 2024 Fonticons, Inc. --><path d="M32 32V416H608V32H32zM0 0H32 608h32V32 416v32H608 32 0V416 32 0zM112 480H528h16v32H528 112 96V480h16z"/></svg>
